public/avatar/shoe/157.svg

<svg xmlns:xlink="http://www.w3.org/1999/xlink" height="38.3" width="36.05" xmlns="http://www.w3.org/2000/svg"><use height="18.1" transform="translate(8.95 10.7)" width="23.6" xlink:href="#a"/><defs><g id="a" fill-rule="evenodd"><path d="m-6.6-.05-.1.05.2-.15-.1.1q1.35-2 5.6-2.55 3.9-.5 5.95 1.35.6.65 3.45 6.7.35 1.15.35 2.75v.2l-.05.2Q7.4 11.1-1.05 13q-9.3 2.15-12.8-.5-1.35-1.05-.85-4.25v-.1q1.25-3.05 8.1-8.2-6.85 5.15-8.1 8.2v.1q-.5 3.2.85 4.25 3.5 2.65 12.8.5Q7.4 11.1 8.7 8.6l.05-.2v-.2q0-1.6-.35-2.75Q5.55-.6 4.95-1.25 2.9-3.1-1-2.6q-4.25.55-5.6 2.55l.1-.1-.2.15.1-.05" transform="translate(14.85 4.15)"/><path d="M-1.1-1.25q3.8-.5 5.35 1.2 1.2 1 3 6L7.5 8.1q-2.1 2.35-9.45 3.85-7.8 1.65-11.15-.45-.4-.3-.4-2.85.95-2.7 7.8-7.9 1-1.55 4.6-2" fill="#323333" transform="translate(14.85 4.15)"/><path d="M-2.75 3.5q-.95 2.9-3.1 3.85-2.7 1.3-7-.5l-.35-.45.2-.65 3.55-3.5q1-.75 3-.75 2.4 0 3.6 1.45.25.25.1.55" transform="translate(14.85 4.15)"/><path d="m-11.5 6 3.3-3.35q2-1.55 4.1.8Q-5.75 8.2-11.5 6" fill="#fff" transform="translate(14.85 4.15)"/><path d="M-1.95 11.95q-7.8 1.65-11.15-.45l-.4-1.4q2.55 1.15 6.9.6 4.3-.55 7.15-2.5 1.95-1.25 1.5-4.25-.4-2.6-2.35-5.3 3.25-.15 4.55 1.3 1.2 1 3 6L7.5 8.1q-2.1 2.35-9.45 3.85" fill="#141616" transform="translate(14.85 4.15)"/><path d="M5.25-4.15h.3q2 .15 2.2 1.8v.25q0 .6-.7 1.3 1.6.8 1.6 1.75V1q-.1 1.7-4.45 3-5.5 1.6-7.25.1-3.3-2.25-6.5-1.1H-10l-.3-.15-.3-1q0-.75.65-1.45.5-.5 1.6-.75-1-.75-1-1.5l.05-.4q.45-1.5 2.6-1.5l.2.1 5.3.3q4.25-.15 6.45-.8" transform="translate(14.85 4.15)"/><path d="M5.65-.8Q9.9 1.15 4.15 3-1 4.4-2.2 3.35q-3.35-2.25-7.05-1.4-.25-1 .95-1.7l2.5-.4Q-7.7-.4-7.85-1.5q-.2-1.05.9-1.3l5.75.4q4.35-.1 6.65-.75Q6.7-2.9 6.75-2q0 .9-1.1 1.2" fill="#323333" transform="translate(14.85 4.15)"/><path d="M3.7-1.15Q4.7-2 4.55-3l.9-.15Q6.7-2.9 6.75-2q0 .9-1.1 1.2Q9.9 1.15 4.15 3-1 4.4-2.2 3.35q-3.35-2.25-7.05-1.4v-.1l3.05-.45 4.35.35Q3.75 2.7 3.4.6q-4 .6-5.9 0 3.55 0 6.2-1.75" fill="#141616" transform="translate(14.85 4.15)"/></g></defs></svg>

<?xml version="1.0" encoding="UTF-8" standalone="no"?>
<svg xmlns:xlink="http://www.w3.org/1999/xlink" height="38.3px" width="36.05px" xmlns="http://www.w3.org/2000/svg">
  <g transform="matrix(1.0, 0.0, 0.0, 1.0, 23.8, 14.85)">
    <use height="18.1" transform="matrix(1.0, 0.0, 0.0, 1.0, -14.85, -4.15)" width="23.6" xlink:href="#shape0"/>
  </g>
  <defs>
    <g id="shape0" transform="matrix(1.0, 0.0, 0.0, 1.0, 14.85, 4.15)">
      <path d="M-6.6 -0.05 L-6.7 0.0 -6.5 -0.15 -6.6 -0.05 Q-5.25 -2.05 -1.0 -2.6 2.9 -3.1 4.95 -1.25 5.55 -0.6 8.4 5.45 8.75 6.6 8.75 8.2 L8.75 8.4 8.7 8.6 Q7.4 11.1 -1.05 13.0 -10.35 15.15 -13.85 12.5 -15.2 11.45 -14.7 8.25 L-14.7 8.15 Q-13.45 5.1 -6.6 -0.05 -13.45 5.1 -14.7 8.15 L-14.7 8.25 Q-15.2 11.45 -13.85 12.5 -10.35 15.15 -1.05 13.0 7.4 11.1 8.7 8.6 L8.75 8.4 8.75 8.2 Q8.75 6.6 8.4 5.45 5.55 -0.6 4.95 -1.25 2.9 -3.1 -1.0 -2.6 -5.25 -2.05 -6.6 -0.05 L-6.5 -0.15 -6.7 0.0 -6.6 -0.05" fill="#000000" fill-rule="evenodd" stroke="none"/>
      <path d="M-1.1 -1.25 Q2.7 -1.75 4.25 -0.05 5.45 0.95 7.25 5.95 L7.5 8.1 Q5.4 10.45 -1.95 11.95 -9.75 13.6 -13.1 11.5 -13.5 11.2 -13.5 8.65 -12.55 5.95 -5.7 0.75 -4.7 -0.8 -1.1 -1.25" fill="#323333" fill-rule="evenodd" stroke="none"/>
      <path d="M-2.75 3.5 Q-3.7 6.4 -5.85 7.35 -8.55 8.65 -12.85 6.85 L-13.2 6.4 -13.0 5.75 -9.45 2.25 Q-8.45 1.5 -6.45 1.5 -4.05 1.5 -2.85 2.95 -2.6 3.2 -2.75 3.5" fill="#000000" fill-rule="evenodd" stroke="none"/>
      <path d="M-11.5 6.0 L-8.2 2.65 Q-6.2 1.1 -4.1 3.45 -5.75 8.2 -11.5 6.0" fill="#ffffff" fill-rule="evenodd" stroke="none"/>
      <path d="M-1.95 11.95 Q-9.75 13.6 -13.1 11.5 L-13.5 10.1 Q-10.95 11.25 -6.6 10.7 -2.3 10.15 0.55 8.2 2.5 6.95 2.05 3.95 1.65 1.35 -0.3 -1.35 2.95 -1.5 4.25 -0.05 5.45 0.95 7.25 5.95 L7.5 8.1 Q5.4 10.45 -1.95 11.95" fill="#141616" fill-rule="evenodd" stroke="none"/>
      <path d="M5.25 -4.15 L5.55 -4.15 Q7.55 -4.0 7.75 -2.35 L7.75 -2.1 Q7.75 -1.5 7.05 -0.8 8.65 0.0 8.65 0.95 L8.65 1.0 Q8.55 2.7 4.2 4.0 -1.3 5.6 -3.05 4.1 -6.35 1.85 -9.55 3.0 L-10.0 3.0 -10.3 2.85 -10.6 1.85 Q-10.6 1.1 -9.95 0.4 -9.45 -0.1 -8.35 -0.35 -9.35 -1.1 -9.35 -1.85 L-9.3 -2.25 Q-8.85 -3.75 -6.7 -3.75 L-6.5 -3.65 -1.2 -3.35 Q3.05 -3.5 5.25 -4.15" fill="#000000" fill-rule="evenodd" stroke="none"/>
      <path d="M5.65 -0.8 Q9.9 1.15 4.15 3.0 -1.0 4.4 -2.2 3.35 -5.55 1.1 -9.25 1.95 -9.5 0.95 -8.3 0.25 L-5.8 -0.15 Q-7.7 -0.4 -7.85 -1.5 -8.05 -2.55 -6.95 -2.8 L-1.2 -2.4 Q3.15 -2.5 5.45 -3.15 6.7 -2.9 6.75 -2.0 6.75 -1.1 5.65 -0.8" fill="#323333" fill-rule="evenodd" stroke="none"/>
      <path d="M3.7 -1.15 Q4.7 -2.0 4.55 -3.0 L5.45 -3.15 Q6.7 -2.9 6.75 -2.0 6.75 -1.1 5.65 -0.8 9.9 1.15 4.15 3.0 -1.0 4.4 -2.2 3.35 -5.55 1.1 -9.25 1.95 L-9.25 1.85 -6.2 1.4 -1.85 1.75 Q3.75 2.7 3.4 0.6 -0.6 1.2 -2.5 0.6 1.05 0.6 3.7 -1.15" fill="#141616" fill-rule="evenodd" stroke="none"/>
    </g>
  </defs>
</svg>
